X:1
T:Clarion, CMD
T:Clarion, CMD
T:George Edward. Alvis, 1890
T:Public Domain Courtesy of the Cyber Hymnal™
C:George Edward. Alvis, 1890
Z:Public Domain
Z:Courtesy of the Cyber Hymnal™
%%score ( 1 2 ) ( 3 4 )
L:1/8
Q:1/4=110
M:4/4
K:F
V:1 treble 
V:2 treble 
V:3 bass 
V:4 bass 
V:1
 C2 | [CA]2 [FA]2 [FA]2 (FG) | [CA]2 [FA]2 [CA]2 [CD]2 | [B,B]2 [GB]2 [GB]2 [GB]2 | B6 G2 | %5
 [FA]2 [FA]2 [FA]2 (F[EG]) | [FA]2 [D=B]2 [Cc]2 [Fd]2 | [Ee]2 [Fd]2 [FA]2 [F=B]2 | c6 [Ec]2 | %9
 d3 z c [DA]2 [=FA]2 | [^Fc]2 [GB]2 [EG]2 [EA]2 | F3 z F [FA]2 [FG]2 | [EG]6 C2 | %13
 [CA]2 [FA]2 [FA]2 (F[EG]) | [FA]2 B2 [Cc]2 ^c2 | [Dd]2 [DG]2 [CA]2 [EG]2 | [CF]6 |] %17
V:2
 C2 | x6 C2 | x8 | x8 | (G2 E2 F2) G2 | x6 F x | x8 | x8 | (F2 ED E2) x2 | D2 ^F2 x5 | x8 | %11
 D2 D2 x5 | x6 C2 | x6 F x | x2 (ED) x (FE) x | x8 | x6 |] %17
V:3
 [C,E,]2 | F,2 [C,C]2 [F,C]2 ([A,,F,][C,E,]) | F,2 [C,C]2 =F,2 [D,^F,]2 | %3
 G,2 [D,D]2 [G,D]2 [F,_D]2 | C6 [E,C]2 | [F,C]2 [C,C]2 [F,C]2 ([A,C][G,B,]) | %6
 [F,A,]2 G,2 [E,G,]2 [=B,,G,]2 | [C,G,]2 [F,A,]2 [D,A,]2 G,2 | G,6 A,2 | %9
 [^F,,A,]2 [D,A,]2 [^F,A,]2 [D,D]2 x | [G,_E]2 [G,,D]2 [C,C]2 [^C,A,]2 | %11
 [D,A,]2 [C,A,]2 [=B,,D]2 [G,,=B,]2 x | C6 ([A,,C][G,,B,]) | [F,,A,]2 [C,C]2 [F,C]2 C2 | %14
 [F,,C]2 [G,,B,]2 [A,,A,]2 (A,G,) | [B,,F,]2 [=B,,F,]2 [C,F,]2 [C,_B,]2 | [F,,F,A,]6 |] %17
V:4
 x2 | F,2 x6 | ^F,2 F,2 x4 | G,2 x6 | (E,2 C,2 D,2) x2 | x8 | x2 (G,F,) x4 | x6 G,2 | %8
 (C,2 G,,2 C,B,,) (A,,G,,) | x9 | x8 | x9 | (C,2 G,,2 C,B,,) x2 | x6 (A,,C,) | x6 A,,2 | x8 | x6 |] %17

